newicons/speedometer.svg

<?xml version="1.0" encoding="UTF-8" standalone="no"?>
<svg
   viewBox="0 0 48 48"
   version="1.1"
   id="svg1"
   sodipodi:docname="speedometer.svg"
   inkscape:version="1.2.2 (b0a8486541, 2022-12-01)"
   xml:space="preserve"
   xmlns:inkscape="http://www.inkscape.org/namespaces/inkscape"
   xmlns:sodipodi="http://sodipodi.sourceforge.net/DTD/sodipodi-0.dtd"
   xmlns="http://www.w3.org/2000/svg"
   xmlns:svg="http://www.w3.org/2000/svg"><sodipodi:namedview
     id="namedview1"
     pagecolor="#505050"
     bordercolor="#eeeeee"
     borderopacity="1"
     inkscape:showpageshadow="0"
     inkscape:pageopacity="0"
     inkscape:pagecheckerboard="0"
     inkscape:deskcolor="#505050"
     inkscape:zoom="17.8125"
     inkscape:cx="28.350877"
     inkscape:cy="27.845614"
     inkscape:window-width="1918"
     inkscape:window-height="1053"
     inkscape:window-x="0"
     inkscape:window-y="0"
     inkscape:window-maximized="1"
     inkscape:current-layer="svg1"
     showgrid="false" /><defs
     id="defs1"><style
       id="style1">.a { fill:none;stroke:#fff;stroke-linecap:round;stroke-linejoin:round; }
</style></defs><g
     id="g24425"><g
       id="g24379"><path
         style="fill:none;stroke:#ffffff;stroke-width:1;stroke-linecap:round;stroke-linejoin:round;stroke-dashoffset:3.6;stroke-opacity:1"
         d="M 29.082429,26.50546 25.301376,22.317863 26.280921,10.422882 H 43.499995 L 42.520443,22.311795 38.052809,26.4862"
         id="path24351" /><path
         style="fill:none;stroke:#ffffff;stroke-width:1;stroke-linecap:round;stroke-linejoin:round;stroke-dashoffset:3.6;stroke-opacity:1"
         d="m 29.490685,21.513801 -4.467634,4.174406 -0.979552,11.888912 H 41.262573 L 42.242117,25.682136 38.461063,21.49454"
         id="path24349" /><path
         style="fill:none;stroke:#ffffff;stroke-width:1;stroke-linecap:round;stroke-linejoin:round;stroke-dashoffset:3.6;stroke-opacity:1"
         d="m 38.052231,26.486215 -0.564842,6.901162 h -8.967954 l 0.563312,-6.882593 z"
         id="path24347" /><path
         style="fill:none;stroke:#ffffff;stroke-width:1;stroke-linecap:round;stroke-linejoin:round;stroke-dashoffset:3.6;stroke-opacity:1"
         d="m 43.499995,10.422881 -4.47588,4.189742"
         id="path24345" /><path
         style="fill:none;stroke:#ffffff;stroke-width:1;stroke-linecap:round;stroke-linejoin:round;stroke-dashoffset:3.6;stroke-opacity:1"
         d="m 26.280921,10.422881 3.775241,4.189742"
         id="path24343" /><path
         style="fill:none;stroke:#ffffff;stroke-width:1;stroke-linecap:round;stroke-linejoin:round;stroke-dashoffset:3.6;stroke-opacity:1"
         d="M 41.262573,37.577118 37.487352,33.387376"
         id="path24341" /><path
         style="fill:none;stroke:#ffffff;stroke-width:1;stroke-linecap:round;stroke-linejoin:round;stroke-dashoffset:3.6;stroke-opacity:1"
         d="m 29.491283,21.513784 0.564842,-6.901161 h 8.967954 l -0.563312,6.882593 z"
         id="path24339" /><path
         style="fill:none;stroke:#ffffff;stroke-width:1;stroke-linecap:round;stroke-linejoin:round;stroke-dashoffset:3.6;stroke-opacity:1"
         d="m 24.043499,37.577118 4.4759,-4.189742"
         id="path24337" /></g><g
       id="g24387"><path
         style="fill:none;stroke:#ffffff;stroke-width:1;stroke-linecap:round;stroke-linejoin:round;stroke-dashoffset:3.6;stroke-opacity:1"
         d="m 21.175664,23.994855 -2.666347,2.491344"
         id="path24335" /><path
         style="fill:none;stroke:#ffffff;stroke-width:1;stroke-linecap:round;stroke-linejoin:round;stroke-dashoffset:3.6;stroke-opacity:1"
         d="M 9.9471932,21.5138 5.4795567,25.688206 4.5000048,37.577118 H 21.71908 l 0.979545,-11.894983 -3.781202,-4.187258 -8.9696318,0.01891 0.5648418,-6.901161 h 8.967972 l 4.475897,-4.189743 H 6.7374268 L 5.7578813,22.31786 9.5389372,26.505457"
         id="path24333" /><path
         style="fill:none;stroke:#ffffff;stroke-width:1;stroke-linecap:round;stroke-linejoin:round;stroke-dashoffset:3.6;stroke-opacity:1"
         d="m 18.508739,26.486215 -0.564843,6.901162 H 8.9759431 l 0.5633121,-6.882594 z"
         id="path24331" /><path
         style="fill:none;stroke:#ffffff;stroke-width:1;stroke-linecap:round;stroke-linejoin:round;stroke-dashoffset:3.6;stroke-opacity:1"
         d="M 6.7374268,10.422881 10.51267,14.612623"
         id="path24329" /><path
         style="fill:none;stroke:#ffffff;stroke-width:1;stroke-linecap:round;stroke-linejoin:round;stroke-dashoffset:3.6;stroke-opacity:1"
         d="M 21.71908,37.577118 17.94386,33.387376"
         id="path24327" /><path
         style="fill:none;stroke:#ffffff;stroke-width:1;stroke-linecap:round;stroke-linejoin:round;stroke-dashoffset:3.6;stroke-opacity:1"
         d="M 4.5000048,37.577118 8.9759062,33.387376"
         id="path24277" /></g></g></svg>

<?xml version="1.0" encoding="UTF-8"?><svg id="a" xmlns="http://www.w3.org/2000/svg" viewBox="0 0 48 48"><defs><style>.s{fill:none;stroke:#fff;stroke-linecap:round;stroke-linejoin:round;}</style></defs><g id="b"><g id="c"><path id="d" class="s" d="M29.0824,26.5055l-3.7811-4.1876.9795-11.895h17.2191l-.9796,11.8889-4.4676,4.1744"/><path id="e" class="s" d="M29.4907,21.5138l-4.4676,4.1744-.9796,11.8889h17.2191l.9795-11.895-3.7811-4.1876"/><path id="f" class="s" d="M38.0522,26.4862l-.5648,6.9012h-8.968l.5633-6.8826,8.9695-.0186Z"/><path id="g" class="s" d="M43.5,10.4229l-4.4759,4.1897"/><path id="h" class="s" d="M26.2809,10.4229l3.7752,4.1897"/><path id="i" class="s" d="M41.2626,37.5771l-3.7752-4.1897"/><path id="j" class="s" d="M29.4913,21.5138l.5648-6.9012h8.968l-.5633,6.8826-8.9695.0186Z"/><path id="k" class="s" d="M24.0435,37.5771l4.4759-4.1897"/></g><g id="l"><path id="m" class="s" d="M21.1757,23.9949l-2.6663,2.4913"/><path id="n" class="s" d="M9.9472,21.5138l-4.4676,4.1744-.9796,11.8889h17.2191l.9795-11.895-3.7812-4.1873-8.9696.0189.5648-6.9012h8.968l4.4759-4.1897H6.7374l-.9795,11.895,3.7811,4.1876"/><path id="o" class="s" d="M18.5087,26.4862l-.5648,6.9012h-8.968l.5633-6.8826,8.9695-.0186Z"/><path id="p" class="s" d="M6.7374,10.4229l3.7752,4.1897"/><path id="q" class="s" d="M21.7191,37.5771l-3.7752-4.1897"/><path id="r" class="s" d="M4.5,37.5771l4.4759-4.1897"/></g></g></svg>
